assets/images/bed.svg

<svg xmlns="http://www.w3.org/2000/svg" viewBox="0 0 20 20"><path fill-rule="evenodd" d="M2 4C2 2.89543 2.89543 2 4 2H16C17.1046 2 18 2.89543 18 4V9H16V7.5C16 6.67157 15.3284 6 14.5 6H12.5C11.6716 6 11 6.67157 11 7.5V9H9V7.5C9 6.67157 8.32843 6 7.5 6H5.5C4.67157 6 4 6.67157 4 7.5V9H2V4ZM20 13.5V12C20 10.8954 19.1046 10 18 10H2C0.895431 10 0 10.8954 0 12V13.5V14V14.5C0 14.7761 0.223858 15 0.5 15H1.5C1.77614 15 2 15.2239 2 15.5V17.5C2 17.7761 2.22386 18 2.5 18H3.5C3.77614 18 4 17.7761 4 17.5V15.5C4 15.2239 4.22386 15 4.5 15H15.5C15.7761 15 16 15.2239 16 15.5V17.5C16 17.7761 16.2239 18 16.5 18H17.5C17.7761 18 18 17.7761 18 17.5V15.5C18 15.2239 18.2239 15 18.5 15H19.5C19.7761 15 20 14.7761 20 14.5V14V13.5Z" clip-rule="evenodd"/></svg>

<svg xmlns="http://www.w3.org/2000/svg" viewBox="0 0 20 20"><path fill-rule="evenodd" d="M2 4a2 2 0 0 1 2-2h12a2 2 0 0 1 2 2v5h-2V7.5A1.5 1.5 0 0 0 14.5 6h-2A1.5 1.5 0 0 0 11 7.5V9H9V7.5A1.5 1.5 0 0 0 7.5 6h-2A1.5 1.5 0 0 0 4 7.5V9H2zm18 9.5V12a2 2 0 0 0-2-2H2a2 2 0 0 0-2 2v2.5a.5.5 0 0 0 .5.5h1a.5.5 0 0 1 .5.5v2a.5.5 0 0 0 .5.5h1a.5.5 0 0 0 .5-.5v-2a.5.5 0 0 1 .5-.5h11a.5.5 0 0 1 .5.5v2a.5.5 0 0 0 .5.5h1a.5.5 0 0 0 .5-.5v-2a.5.5 0 0 1 .5-.5h1a.5.5 0 0 0 .5-.5z" clip-rule="evenodd"/></svg>
